X: 10134
T: Din Tarrant's
R: polka
M: 2/4
K: Dmajor
d2 ed|cA AF|GE AG|FD DE/F/|
GE AG|FA de/f/|ge ce|d2 d2:|
d>e fa|ge ed|cA eA|e/f/e/d/ cA|
d>e fa|ge ed|c/B/A ce|d2 d2:|

